X:206
T:6/8 Andr\'e \`a Toto
S:Marie-Pierre Lecault au Vices et Versa 2013
Z:robin.beech@mcgill.ca
M:6/8
L:1/8
K:D
fef d2B | AFA DFA | fed g2f | ecd e2a |
fef d2B | AFA DFA | Bcd eag |1 fdc d2g :|2 fdc d2e |:
fga fga | fga afd | efg efg |\ 
M:9/8
efg fef d2e | 
M:6/8
fga fga | fga afd |\
M:9/8
efg aba a2g :|

